humanity-icon-theme/Humanity/actions/24/folder-new.svg

<?xml version="1.0" encoding="UTF-8" standalone="no"?>
<!-- Created with Inkscape (http://www.inkscape.org/) -->
<svg
   xmlns:svg="http://www.w3.org/2000/svg"
   xmlns="http://www.w3.org/2000/svg"
   xmlns:xlink="http://www.w3.org/1999/xlink"
   version="1.0"
   width="24"
   height="24"
   id="svg3337">
  <defs
     id="defs3339">
    <linearGradient
       id="linearGradient8265-821-176-38-919-66-249">
      <stop
         id="stop2687"
         style="stop-color:#ffffff;stop-opacity:0.27450982"
         offset="0" />
      <stop
         id="stop2689"
         style="stop-color:#ffffff;stop-opacity:0.07843138"
         offset="1" />
    </linearGradient>
    <linearGradient
       x1="18.03083"
       y1="16.407909"
       x2="20.054544"
       y2="24.627615"
       id="linearGradient2547"
       xlink:href="#linearGradient8265-821-176-38-919-66-249"
       gradientUnits="userSpaceOnUse"
       gradientTransform="matrix(0.4450331,0,0,0.4023652,2.819205,3.849861)" />
    <linearGradient
       id="linearGradient3752">
      <stop
         id="stop3754"
         style="stop-color:#ffffff;stop-opacity:1"
         offset="0" />
      <stop
         id="stop3760"
         style="stop-color:#ffffff;stop-opacity:1"
         offset="0.84754151" />
      <stop
         id="stop3756"
         style="stop-color:#ffffff;stop-opacity:0"
         offset="1" />
    </linearGradient>
    <radialGradient
       cx="4.02005"
       cy="5.5926585"
       r="10.273108"
       fx="4.02005"
       fy="5.5926585"
       id="radialGradient2550"
       xlink:href="#linearGradient3752"
       gradientUnits="userSpaceOnUse"
       gradientTransform="matrix(-1.680222e-2,1.3942814,-1.79662,-2.165073e-2,14.152267,2.156624)" />
    <linearGradient
       id="linearGradient2603">
      <stop
         id="stop2605"
         style="stop-color:#bb2b12;stop-opacity:1"
         offset="0" />
      <stop
         id="stop2607"
         style="stop-color:#cd7233;stop-opacity:1"
         offset="1" />
    </linearGradient>
    <linearGradient
       x1="9.7045717"
       y1="20.882006"
       x2="9.7045717"
       y2="4.3030405"
       id="linearGradient2555"
       xlink:href="#linearGradient2603"
       gradientUnits="userSpaceOnUse"
       gradientTransform="matrix(0.9945751,0,0,0.9945751,-0.339267,1.717773)" />
    <linearGradient
       id="linearGradient2610">
      <stop
         id="stop2612"
         style="stop-color:#f0c178;stop-opacity:1"
         offset="0" />
      <stop
         id="stop2614"
         style="stop-color:#e18941;stop-opacity:1"
         offset="0.5" />
      <stop
         id="stop2616"
         style="stop-color:#ec4f18;stop-opacity:1"
         offset="1" />
    </linearGradient>
    <radialGradient
       cx="7.8185525"
       cy="8.5608768"
       r="11.268134"
       fx="7.8185525"
       fy="8.5608768"
       id="radialGradient2553"
       xlink:href="#linearGradient2610"
       gradientUnits="userSpaceOnUse"
       gradientTransform="matrix(1.6899516,0,0,1.0436086,-5.448971,0.961753)" />
    <linearGradient
       id="linearGradient5157">
      <stop
         id="stop5159"
         style="stop-color:#c1c1c1;stop-opacity:1"
         offset="0" />
      <stop
         id="stop5161"
         style="stop-color:#909090;stop-opacity:1"
         offset="1" />
    </linearGradient>
    <linearGradient
       x1="9.8763561"
       y1="2.6014566"
       x2="9.8763561"
       y2="23.061668"
       id="linearGradient2560"
       xlink:href="#linearGradient5157"
       gradientUnits="userSpaceOnUse" />
    <linearGradient
       id="linearGradient11111">
      <stop
         id="stop11113"
         style="stop-color:#ffffff;stop-opacity:1"
         offset="0" />
      <stop
         id="stop11115"
         style="stop-color:#cdcdcd;stop-opacity:1"
         offset="0.91013825" />
      <stop
         id="stop11117"
         style="stop-color:#a1a1a1;stop-opacity:1"
         offset="1" />
    </linearGradient>
    <linearGradient
       x1="-28.531403"
       y1="17.955765"
       x2="-28.531403"
       y2="37.502914"
       id="linearGradient2558"
       xlink:href="#linearGradient11111"
       gradientUnits="userSpaceOnUse"
       gradientTransform="translate(34.378004,-14.501322)" />
    <radialGradient
       cx="605.71429"
       cy="486.64789"
       r="117.14286"
       fx="605.71429"
       fy="486.64789"
       id="radialGradient2532"
       xlink:href="#linearGradient5060"
       gradientUnits="userSpaceOnUse"
       gradientTransform="matrix(-2.774389,0,0,1.969706,112.7623,-872.8854)" />
    <linearGradient
       id="linearGradient5060">
      <stop
         id="stop5062"
         style="stop-color:#000000;stop-opacity:1"
         offset="0" />
      <stop
         id="stop5064"
         style="stop-color:#000000;stop-opacity:0"
         offset="1" />
    </linearGradient>
    <radialGradient
       cx="605.71429"
       cy="486.64789"
       r="117.14286"
       fx="605.71429"
       fy="486.64789"
       id="radialGradient2530"
       xlink:href="#linearGradient5060"
       gradientUnits="userSpaceOnUse"
       gradientTransform="matrix(2.774389,0,0,1.969706,-1891.633,-872.8854)" />
    <linearGradient
       id="linearGradient5048">
      <stop
         id="stop5050"
         style="stop-color:#000000;stop-opacity:0"
         offset="0" />
      <stop
         id="stop5056"
         style="stop-color:#000000;stop-opacity:1"
         offset="0.5" />
      <stop
         id="stop5052"
         style="stop-color:#000000;stop-opacity:0"
         offset="1" />
    </linearGradient>
    <linearGradient
       x1="302.85715"
       y1="366.64789"
       x2="302.85715"
       y2="609.50507"
       id="linearGradient2528"
       xlink:href="#linearGradient5048"
       gradientUnits="userSpaceOnUse"
       gradientTransform="matrix(2.774389,0,0,1.969706,-1892.179,-872.8854)" />
    <linearGradient
       id="linearGradient2264">
      <stop
         id="stop2266"
         style="stop-color:#d7e866;stop-opacity:1"
         offset="0" />
      <stop
         id="stop2268"
         style="stop-color:#8cab2a;stop-opacity:1"
         offset="1" />
    </linearGradient>
    <linearGradient
       x1="24.103895"
       y1="15.168831"
       x2="24.103895"
       y2="32.485161"
       id="linearGradient2995"
       xlink:href="#linearGradient2264"
       gradientUnits="userSpaceOnUse"
       gradientTransform="matrix(0.4691323,0,0,0.4663025,7.700479,6.8084708)" />
    <linearGradient
       id="linearGradient4222">
      <stop
         id="stop4224"
         style="stop-color:#ffffff;stop-opacity:1"
         offset="0" />
      <stop
         id="stop4226"
         style="stop-color:#ffffff;stop-opacity:0"
         offset="1" />
    </linearGradient>
    <linearGradient
       x1="24.138529"
       y1="7.0774679"
       x2="24.138529"
       y2="47.272728"
       id="linearGradient2992"
       xlink:href="#linearGradient4222"
       gradientUnits="userSpaceOnUse"
       gradientTransform="matrix(0.2817955,0,0,0.2800956,12.196562,11.014894)" />
  </defs>
  <g
     id="layer1">
    <g
       transform="translate(3.630422e-2,-1.2165904e-7)"
       id="g2589">
      <g
         transform="matrix(0.5459263,0,0,0.5168524,-1.002036,-0.578182)"
         id="g3490"
         style="stroke-width:1.88256383;stroke-miterlimit:4;stroke-dasharray:none">
        <g
           transform="matrix(2.165152e-2,0,0,1.485743e-2,43.0076,42.68539)"
           id="g5022"
           style="stroke-width:104.96237946;stroke-miterlimit:4;stroke-dasharray:none;display:inline">
          <rect
             width="1339.6335"
             height="478.35718"
             x="-1559.2523"
             y="-150.69685"
             id="rect2527"
             style="opacity:0.40206185;fill:url(#linearGradient2528);fill-opacity:1;fill-rule:nonzero;stroke:none;stroke-width:104.96237946;marker:none;visibility:visible;display:inline;overflow:visible" />
          <path
             d="M -219.61876,-150.68038 C -219.61876,-150.68038 -219.61876,327.65041 -219.61876,327.65041 C -76.744594,328.55086 125.78146,220.48075 125.78138,88.454235 C 125.78138,-43.572302 -33.655436,-150.68036 -219.61876,-150.68038 L -219.61876,-150.68038 z"
             id="path2529"
             style="opacity:0.40206185;fill:url(#radialGradient2530);fill-opacity:1;fill-rule:nonzero;stroke:none;stroke-width:104.96237946;marker:none;visibility:visible;display:inline;overflow:visible" />
          <path
             d="M -1559.2523,-150.68038 C -1559.2523,-150.68038 -1559.2523,327.65041 -1559.2523,327.65041 C -1702.1265,328.55086 -1904.6525,220.48075 -1904.6525,88.454235 C -1904.6525,-43.572302 -1745.2157,-150.68036 -1559.2523,-150.68038 L -1559.2523,-150.68038 z"
             id="path2531"
             style="opacity:0.40206185;fill:url(#radialGradient2532);fill-opacity:1;fill-rule:nonzero;stroke:none;stroke-width:104.96237946;marker:none;visibility:visible;display:inline;overflow:visible" />
        </g>
      </g>
      <path
         d="M 0.677281,2.569495 C 0.591741,2.569495 0.518412,2.662245 0.518412,2.758038 C 0.518412,8.627198 0.475332,15.002127 0.469272,20.98276 C 0.498352,21.877795 1.006513,22.487902 1.358937,22.491102 C 2.371673,22.500297 1.898209,22.487073 2.407472,22.491102 C 8.877805,22.475003 15.986389,22.412929 22.45672,22.396831 C 22.510934,22.403749 20.980005,22.289106 20.995126,20.951336 C 20.995127,16.278389 20.493079,9.764344 20.493079,5.091395 C 20.493079,4.904517 20.477639,4.800509 20.461305,4.71431 C 20.448691,4.64775 20.432609,4.61544 20.397758,4.588615 C 20.369896,4.564165 20.343209,4.531575 20.302437,4.525765 L 11.482298,4.525765 C 10.666982,4.525765 10.480241,2.533802 9.268608,2.533802 L 0.677284,2.569492 L 0.677281,2.569495 z"
         id="path3496"
         style="fill:url(#linearGradient2558);fill-opacity:1;stroke:url(#linearGradient2560);stroke-width:1.01114547;stroke-linecap:round;stroke-linejoin:round;stroke-miterlimit:4;stroke-dasharray:none;stroke-opacity:1;display:inline" />
      <path
         d="M 3.499354,6.547126 C 14.069256,6.547126 16.529798,6.547586 23.492859,6.519586 C 23.492859,8.09003 23.751015,22.559861 23.008747,22.559861 C 22.294699,22.559861 8.963096,22.46551 2.000037,22.493509 C 3.471721,22.493509 3.499354,21.870761 3.499354,6.547125 L 3.499354,6.547126 z"
         id="path3498"
         style="fill:url(#radialGradient2553);fill-opacity:1;stroke:url(#linearGradient2555);stroke-width:1;stroke-linecap:round;stroke-linejoin:round;stroke-miterlimit:4;stroke-dasharray:none;stroke-opacity:1;display:inline" />
      <path
         d="M 22.938799,7.608842 C 22.938799,7.608842 6.106998,7.702452 4.542003,7.516472 C 4.459063,21.345906 4.041055,21.955514 4.041055,21.955514"
         id="path3211"
         style="opacity:0.4;fill:none;stroke:url(#radialGradient2550);stroke-width:0.98119503;stroke-linecap:butt;stroke-linejoin:miter;stroke-miterlimit:4;stroke-dasharray:none;stroke-opacity:1;display:inline" />
      <path
         d="M 4.2516553,6 C 3.5667724,6 2.9999997,6.512433 2.9999997,7.1316522 L 2.9999997,13.569495 C 3.0026227,13.684666 3.0660513,13.815975 3.1668871,13.896417 C 3.2677216,13.976858 3.3966108,14.010798 3.5423838,13.997008 C 3.5470188,13.997115 3.5516561,13.997115 3.5562911,13.997008 L 23.582781,11.130156 C 23.814987,11.097046 23.996753,10.915161 23.999999,10.702643 L 23.999999,7.1316522 C 23.999999,6.512433 23.433226,6 22.748344,6 L 4.2516553,6 L 4.2516553,6 z"
         id="path2608"
         style="fill:url(#linearGradient2547);fill-opacity:1;fill-rule:evenodd;stroke:none" />
    </g>
    <rect
       width="7"
       height="1"
       rx="0.53846157"
       ry="0.5"
       x="2"
       y="4"
       id="rect2545"
       style="fill:#e9a961;fill-opacity:1;fill-rule:nonzero;stroke:none;stroke-width:1;marker:none;visibility:visible;display:block;overflow:visible;enable-background:accumulate" />
    <path
       d="M 16.5,15.500009 L 16.5,12.500009 L 20.5,12.500009 L 20.5,15.500009 L 23.5,15.500009 L 23.5,19.500009 L 20.5,19.500009 L 20.5,22.5 L 16.5,22.5 L 16.5,19.500009 L 13.510535,19.500009 L 13.510535,15.500009 L 16.5,15.500009 L 16.5,15.500009 z"
       id="path2262"
       style="fill:url(#linearGradient2995);fill-opacity:1;fill-rule:evenodd;stroke:#699536;stroke-width:1;stroke-linecap:butt;stroke-linejoin:round;stroke-miterlimit:4;stroke-dasharray:none;stroke-opacity:1;display:inline" />
    <path
       d="M 17.5,16.500009 L 17.5,13.500009 L 19.5,13.500009 L 19.5,16.500009 L 22.5,16.500009 L 22.5,18.500009 L 19.5,18.500009 L 19.5,21.500009 L 17.5,21.500009 L 17.5,18.500009 L 14.5,18.500009 L 14.5,16.500009 L 17.5,16.500009 z"
       id="path2272"
       style="opacity:0.4;fill:none;stroke:url(#linearGradient2992);stroke-width:1;stroke-linecap:butt;stroke-linejoin:miter;stroke-miterlimit:4;stroke-dasharray:none;stroke-opacity:1;display:inline" />
  </g>
</svg>

<?xml version="1.0" encoding="UTF-8" standalone="no"?>
<!-- Created with Inkscape (http://www.inkscape.org/) -->
<svg id="svg3337" xmlns="http://www.w3.org/2000/svg" height="24" width="24" version="1.0" xmlns:xlink="http://www.w3.org/1999/xlink">
 <defs id="defs3339">
  <linearGradient id="linearGradient2547" y2="24.628" gradientUnits="userSpaceOnUse" x2="20.055" gradientTransform="matrix(.44503 0 0 .40237 2.8192 3.8499)" y1="16.408" x1="18.031">
   <stop id="stop2687" style="stop-color:#fff;stop-opacity:.27451" offset="0"/>
   <stop id="stop2689" style="stop-color:#fff;stop-opacity:.078431" offset="1"/>
  </linearGradient>
  <radialGradient id="radialGradient2550" gradientUnits="userSpaceOnUse" cy="5.5927" cx="4.02" gradientTransform="matrix(-.016802 1.3943 -1.7966 -.021651 14.152 2.1566)" r="10.273">
   <stop id="stop3754" style="stop-color:#fff" offset="0"/>
   <stop id="stop3760" style="stop-color:#fff" offset=".84754"/>
   <stop id="stop3756" style="stop-color:#fff;stop-opacity:0" offset="1"/>
  </radialGradient>
  <linearGradient id="linearGradient2555" y2="4.303" gradientUnits="userSpaceOnUse" x2="9.7046" gradientTransform="matrix(.99458 0 0 .99458 -.33927 1.7178)" y1="20.882" x1="9.7046">
   <stop id="stop2605" style="stop-color:#bb2b12" offset="0"/>
   <stop id="stop2607" style="stop-color:#cd7233" offset="1"/>
  </linearGradient>
  <radialGradient id="radialGradient2553" gradientUnits="userSpaceOnUse" cy="8.5609" cx="7.8186" gradientTransform="matrix(1.69 0 0 1.0436 -5.449 .96175)" r="11.268">
   <stop id="stop2612" style="stop-color:#f0c178" offset="0"/>
   <stop id="stop2614" style="stop-color:#e18941" offset=".5"/>
   <stop id="stop2616" style="stop-color:#ec4f18" offset="1"/>
  </radialGradient>
  <linearGradient id="linearGradient2560" y2="23.062" gradientUnits="userSpaceOnUse" x2="9.8764" y1="2.6015" x1="9.8764">
   <stop id="stop5159" style="stop-color:#c1c1c1" offset="0"/>
   <stop id="stop5161" style="stop-color:#909090" offset="1"/>
  </linearGradient>
  <linearGradient id="linearGradient2558" y2="37.503" gradientUnits="userSpaceOnUse" x2="-28.531" gradientTransform="translate(34.378 -14.501)" y1="17.956" x1="-28.531">
   <stop id="stop11113" style="stop-color:#fff" offset="0"/>
   <stop id="stop11115" style="stop-color:#cdcdcd" offset=".91014"/>
   <stop id="stop11117" style="stop-color:#a1a1a1" offset="1"/>
  </linearGradient>
  <radialGradient id="radialGradient2532" xlink:href="#linearGradient5060" gradientUnits="userSpaceOnUse" cy="486.65" cx="605.71" gradientTransform="matrix(-2.7744 0 0 1.9697 112.76 -872.89)" r="117.14"/>
  <linearGradient id="linearGradient5060">
   <stop id="stop5062" offset="0"/>
   <stop id="stop5064" style="stop-opacity:0" offset="1"/>
  </linearGradient>
  <radialGradient id="radialGradient2530" xlink:href="#linearGradient5060" gradientUnits="userSpaceOnUse" cy="486.65" cx="605.71" gradientTransform="matrix(2.7744 0 0 1.9697 -1891.6 -872.89)" r="117.14"/>
  <linearGradient id="linearGradient2528" y2="609.51" gradientUnits="userSpaceOnUse" x2="302.86" gradientTransform="matrix(2.7744 0 0 1.9697 -1892.2 -872.89)" y1="366.65" x1="302.86">
   <stop id="stop5050" style="stop-opacity:0" offset="0"/>
   <stop id="stop5056" offset=".5"/>
   <stop id="stop5052" style="stop-opacity:0" offset="1"/>
  </linearGradient>
  <linearGradient id="linearGradient2995" y2="32.485" gradientUnits="userSpaceOnUse" x2="24.104" gradientTransform="matrix(.46913 0 0 .46630 7.7005 6.8085)" y1="15.169" x1="24.104">
   <stop id="stop2266" style="stop-color:#d7e866" offset="0"/>
   <stop id="stop2268" style="stop-color:#8cab2a" offset="1"/>
  </linearGradient>
  <linearGradient id="linearGradient2992" y2="47.273" gradientUnits="userSpaceOnUse" x2="24.139" gradientTransform="matrix(.28180 0 0 .28010 12.197 11.015)" y1="7.0775" x1="24.139">
   <stop id="stop4224" style="stop-color:#fff" offset="0"/>
   <stop id="stop4226" style="stop-color:#fff;stop-opacity:0" offset="1"/>
  </linearGradient>
 </defs>
 <g id="layer1">
  <g id="g2589" transform="translate(.036304 -1.2166e-7)">
   <g id="g3490" style="stroke-width:1.8826" transform="matrix(.54593 0 0 .51685 -1.002 -.57818)">
    <g id="g5022" style="stroke-width:104.96" transform="matrix(.021652 0 0 .014857 43.008 42.685)">
     <rect id="rect2527" style="opacity:.40206;fill:url(#linearGradient2528)" height="478.36" width="1339.6" y="-150.7" x="-1559.3"/>
     <path id="path2529" style="opacity:.40206;fill:url(#radialGradient2530)" d="m-219.62-150.68v478.33c142.88 0.9 345.4-107.17 345.4-239.2 0-132.02-159.44-239.13-345.4-239.13z"/>
     <path id="path2531" style="opacity:.40206;fill:url(#radialGradient2532)" d="m-1559.3-150.68v478.33c-142.8 0.9-345.4-107.17-345.4-239.2 0-132.02 159.5-239.13 345.4-239.13z"/>
    </g>
   </g>
   <path id="path3496" style="stroke-linejoin:round;stroke:url(#linearGradient2560);stroke-linecap:round;stroke-width:1.0111;fill:url(#linearGradient2558)" d="m0.67728 2.5695c-0.08554 0-0.15887 0.0927-0.15887 0.1885 0 5.8692-0.04308 12.244-0.04914 18.225 0.02908 0.895 0.53723 1.505 0.88963 1.508 1.0128 0.009 0.5393-0.004 1.0486 0 6.4703-0.016 13.578-0.078 20.05-0.094 0.053 0.007-1.478-0.108-1.463-1.446 0-4.673-0.502-11.187-0.502-15.86 0-0.1865-0.015-0.2905-0.032-0.3767-0.012-0.0665-0.028-0.0989-0.063-0.1257-0.028-0.0244-0.055-0.057-0.096-0.0628h-8.82c-0.815 0-1.002-1.992-2.2134-1.992l-8.5913 0.0357h-0.00002z"/>
   <path id="path3498" style="stroke-linejoin:round;stroke:url(#linearGradient2555);stroke-linecap:round;fill:url(#radialGradient2553)" d="m3.4994 6.5471c10.57 0 13.031 0.0005 19.994-0.0275 0 1.5704 0.258 16.04-0.484 16.04-0.714 0-14.046-0.094-21.009-0.066 1.4717 0 1.4994-0.623 1.4994-15.947v0.0001z"/>
   <path id="path3211" style="opacity:.4;stroke:url(#radialGradient2550);stroke-width:.98120;fill:none" d="m22.939 7.6088s-16.832 0.0937-18.397-0.0923c-0.0829 13.83-0.5009 14.44-0.5009 14.44"/>
   <path id="path2608" style="fill:url(#linearGradient2547);fill-rule:evenodd" d="m4.2517 6c-0.6849 0-1.2517 0.5124-1.2517 1.1317v6.4373c0.0026 0.116 0.0661 0.247 0.1669 0.327 0.1008 0.081 0.2297 0.115 0.3755 0.101h0.0139l20.027-2.867c0.232-0.033 0.414-0.215 0.417-0.427v-3.5713c0-0.6193-0.567-1.1317-1.252-1.1317h-18.496-0.0003z"/>
  </g>
  <rect id="rect2545" style="display:block;fill:#e9a961" rx=".53846" ry=".5" height="1" width="7" y="4" x="2"/>
  <path id="path2262" style="stroke-linejoin:round;fill-rule:evenodd;stroke:#699536;fill:url(#linearGradient2995)" d="m16.5 15.5v-3h4v3h3v4h-3v3h-4v-3h-2.989v-4h2.989z"/>
  <path id="path2272" style="opacity:.4;stroke:url(#linearGradient2992);fill:none" d="m17.5 16.5v-3h2v3h3v2h-3v3h-2v-3h-3v-2h3z"/>
 </g>
</svg>
